X: 121
T: Willie brewed a peck o' maut
R: reel
B: RSCDS Graded 1 #21
Z: 1997 by John Chambers <jc:trillian.mit.edu>
M: C|
L: 1/8
%
K: G
Bc \
| "G"d2g2 "(Em)"edcB | "Am"e2a2 "D7"gfed | "G"g3e "(Em)"d2B2 | "A(m)"e2A2 "D7"A2Bc \
| "G"d2g2 "(Em)"edcB | "Am"e2a2 "D7"gfed | "G"g3e "(Em)"d2B2 | "D7"d2G2 "G"G2 :|
|: ga \
| "G"b2-bg "D7"a2-af | "G"gfed "(Em)"[g3B3]B | "C"c2-ce "G"d2B2 | "A(m)"e2A2 "D7"A2ga \
| "G"b2-bg "D7"a2-af | "G"gfed "(Em)"[g3B3]B | "C"c2-ce "D7"d3c | "G"B2G2 G2 :|
